tools/download-figma-icons/icons/solid/pot-with-spaghetti.svg

<svg width="24" height="24" viewBox="0 0 24 24" fill="none" xmlns="http://www.w3.org/2000/svg">
<path d="M21.72 10.3277H21.0375V9.7502C21.0375 9.3377 20.7 9.0002 20.2875 9.0002H14.0025L11.1825 1.2452C11.0475 0.8552 10.62 0.6527 10.2225 0.7952C9.84003 0.9377 9.63753 1.3652 9.78003 1.7552L10.6425 4.1402L8.10753 0.3377C7.88253 -0.00730015 7.41753 -0.1048 7.07253 0.1277C6.72753 0.3527 6.63753 0.8252 6.86253 1.1627L12.075 9.0002H11.6175L6.60003 1.8227C6.36753 1.4777 5.89503 1.3952 5.55753 1.6352C5.22003 1.8752 5.13753 2.3402 5.37753 2.6777L7.46253 5.6627L3.52503 1.7177C3.23253 1.4252 2.76003 1.4252 2.46753 1.7177C2.17503 2.0102 2.17503 2.4902 2.46753 2.7827L6.38253 6.7052L1.96503 3.1652C1.64253 2.9027 1.17003 2.9627 0.915031 3.2852C0.652531 3.6077 0.705031 4.0802 1.02753 4.3352L1.29003 4.5452C1.17003 4.5752 1.05753 4.6277 0.967531 4.7177C0.675031 5.0102 0.675031 5.4902 0.967531 5.7827L4.18503 9.0002H3.71253C3.30003 9.0002 2.96253 9.3377 2.96253 9.7502V10.3277H2.28003C1.15503 10.3277 0.750031 11.9252 0.750031 13.4102C0.750031 14.8952 1.15503 16.5002 2.28003 16.5002H2.96253V20.3027C2.96253 22.3427 4.62003 24.0002 6.65253 24.0002H17.3475C19.38 24.0002 21.0375 22.3427 21.0375 20.3027V16.5002H21.72C22.845 16.5002 23.25 14.9027 23.25 13.4102C23.25 11.9177 22.845 10.3277 21.72 10.3277ZM2.96253 15.0002H2.50503C2.39253 14.7602 2.25003 14.1977 2.25003 13.4102C2.25003 12.6227 2.39253 12.0677 2.50503 11.8277H2.96253V15.0002ZM4.10253 6.7952L6.84753 9.0002H6.30003L4.10253 6.7952ZM21.495 15.0002H21.0375V11.8277H21.495C21.6075 12.0677 21.75 12.6302 21.75 13.4102C21.75 14.1902 21.6075 14.7602 21.495 15.0002Z" fill="black"/>
</svg>

<svg xmlns="http://www.w3.org/2000/svg" width="24" height="24" fill="none" viewBox="0 0 24 24"><path fill="currentColor" d="M21.72 10.328h-.682V9.75a.75.75 0 0 0-.75-.75h-6.286l-2.82-7.755a.743.743 0 0 0-.96-.45.75.75 0 0 0-.442.96l.863 2.385L8.108.338a.74.74 0 0 0-1.035-.21.75.75 0 0 0-.21 1.035L12.075 9h-.457L6.6 1.823a.747.747 0 1 0-1.223.855l2.086 2.985-3.938-3.945a.747.747 0 0 0-1.057 0 .756.756 0 0 0 0 1.065l3.915 3.922-4.418-3.54a.743.743 0 0 0-1.05.12.74.74 0 0 0 .113 1.05l.262.21a.7.7 0 0 0-.322.173.756.756 0 0 0 0 1.065L4.185 9h-.472a.75.75 0 0 0-.75.75v.578H2.28c-1.125 0-1.53 1.597-1.53 3.082s.405 3.09 1.53 3.09h.683v3.803A3.7 3.7 0 0 0 6.653 24h10.695a3.7 3.7 0 0 0 3.69-3.697V16.5h.682c1.125 0 1.53-1.597 1.53-3.09s-.405-3.082-1.53-3.082M2.963 15h-.458c-.112-.24-.255-.802-.255-1.59 0-.787.143-1.342.255-1.582h.458zm1.14-8.205L6.848 9H6.3zM21.495 15h-.457v-3.172h.457c.113.24.255.802.255 1.582s-.142 1.35-.255 1.59"/></svg>
